X:1
T:the Summer Assembly (2nd tune)
C:J.Scott Skinner
L:1/8
M:2/4
I:linebreak $
K:D
V:1 treble 
V:1
|:"A7""A" B |"D" AF d>A |"G" Bd"D" A>F | AB/c/"Bm" dA |"E7" Be"A7" e3/2 || f/ |"D" AF d>A | %7
"G" Bd"D" Ad |"G" e/d/c/B/"D" AF/A/ |$"G" [GB][Gd]"D" [Fd] ::"B" f |"G" e/d/c/B/"D" AF/A/ | %12
"G" Bd"D" Af |"G" e/d/c/B/"D" AF/A/ |"E7" Be"A7" e || f |"^(G)" e/d/c/B/"D" AF/A/ |"G" Bd"D" Ad |$ %18
"G" e/d/c/B/"D" AF/A/ |"G" [GB][Gd]"D" [Fd] :| %20
